images/details/path.svg

<?xml version="1.0" encoding="UTF-8"?>
<svg width="13px" height="18px" viewBox="0 0 13 18" version="1.1" xmlns="http://www.w3.org/2000/svg" xmlns:xlink="http://www.w3.org/1999/xlink">
    <title>location-outline</title>
    <g id="Page-1" stroke="none" stroke-width="1" fill="none" fill-rule="evenodd">
        <g id="Página-de-detalhes-das-vagas-normais" transform="translate(-546.000000, -203.000000)" fill="#BDBDBD" fill-rule="nonzero">
            <g id="location-outline" transform="translate(546.000000, 203.000000)">
                <path d="M6.5,0 C2.91872932,0 0,2.74681032 0,6.14760475 C0,7.85460051 0.808079089,10.0222983 2.21037407,12.5268018 L2.26077976,12.61652 C3.20465926,14.2908655 4.3139385,15.9421484 5.40136095,17.4008462 L5.4565081,17.4747072 C5.69940762,17.8047572 6.08725662,18 6.5,18 L6.51995152,18 C6.91857323,17.9937681 7.29206729,17.8057516 7.53162607,17.4905719 L7.54032952,17.4789673 C8.66578422,15.9758358 9.81818827,14.2629374 10.7896097,12.528187 C12.1919083,10.023982 13,7.85584514 13,6.14760475 C13,2.74681032 10.0812707,0 6.5,0 Z M6.5,1.28577354 C9.37735485,1.28577354 11.7,3.47161025 11.7,6.14760475 C11.7,7.5809601 10.9558789,9.57746176 9.65238253,11.905227 L9.6036059,11.9920328 C8.69010747,13.6122058 7.60965539,15.2200613 6.55223252,16.6379914 L6.49995937,16.7078236 L6.50446972,16.713873 C5.41021935,15.2518032 4.28754481,13.5825843 3.34763374,11.9039 C2.04413595,9.57584859 1.3,7.57968026 1.3,6.14760475 C1.3,3.47161025 3.62264515,1.28577354 6.5,1.28577354 Z" id="Path"></path>
                <path d="M6.5,4 C5.11928813,4 4,5.11928813 4,6.5 C4,7.88071187 5.11928813,9 6.5,9 C7.88071187,9 9,7.88071187 9,6.5 C9,5.11928813 7.88071187,4 6.5,4 Z M6.5,5.25 C7.19035594,5.25 7.75,5.80964406 7.75,6.5 C7.75,7.19035594 7.19035594,7.75 6.5,7.75 C5.80964406,7.75 5.25,7.19035594 5.25,6.5 C5.25,5.80964406 5.80964406,5.25 6.5,5.25 Z" id="Oval"></path>
            </g>
        </g>
    </g>
</svg>

<svg width="13" height="18" viewBox="0 0 13 18" xmlns="http://www.w3.org/2000/svg">
    <path d="M6.5 0C2.919 0 0 2.747 0 6.148c0 1.707.808 3.874 2.21 6.379l.05.09A45.844 45.844 0 0 0 5.402 17.4l.056.074c.242.33.63.525 1.043.525h.02a1.296 1.296 0 0 0 1.012-.51l.008-.011c1.126-1.503 2.278-3.216 3.25-4.95C12.192 10.023 13 7.855 13 6.147 13 2.747 10.081 0 6.5 0zm0 1.286c2.877 0 5.2 2.186 5.2 4.862 0 1.433-.744 3.43-2.048 5.757l-.048.087a44.557 44.557 0 0 1-3.052 4.646l-.052.07.004.006c-1.094-1.462-2.216-3.131-3.156-4.81C2.044 9.576 1.3 7.58 1.3 6.148c0-2.676 2.323-4.862 5.2-4.862z" fill="#BDBDBD" fill-rule="nonzero"/>
</svg>
